build/Karasa-Jaga/scalable/status/mail-unread-new-symbolic.svg

<svg height="16" width="16" xmlns="http://www.w3.org/2000/svg"><g fill="#bebebe"><path d="m15.09375 5.2851562-.302734.1542969.302734.2617188v-.1386719zm0 2.890625a1.5331622 1.5331622 0 0 1 -.486328.2402344v2.2558594l-1.623047-1.1757812a1.5331622 1.5331622 0 0 1 -.275391.4003906l2.384766 1.7285156z"/><path d="m6.65625 8.3125-.15625.09375-.125.09375-1.46875.96875-4 2.6875v.34375h14.1875v-.34375l-2.865234-1.923828a1.5331622 1.5331622 0 0 1 -.648438.132812l2.47461 1.66211h-12.1093755l3.2226563-2.1640628 1.4667968-.96875a.47347348.47347348 0 0 0 .0234375-.015625l.0039063-.0019531.4941406.3125a1.5331622 1.5331622 0 0 1 -.2460938-.7167969zm3.2832031.6367188-.1777343.2070312.4277342.2832031z"/><path d="m.90625 4.4375v1.125 6.0625l3.75-2.71875 1.40625-1zm.4414062.8300781 3.9394532 2.6484375-.8867188.6308594a.44198593.44198593 0 0 0 -.00391.00195l-3.0488244 2.210941v-5.197266z"/><path d="m.90625 3.5v.40625.0625l6.0683594 3.9179688a1.5331622 1.5331622 0 0 1 .0039062-.0136719l.1503906-.4648438-.2128906-.1386719-.2558594.0195313a1.5331622 1.5331622 0 0 1 -1.6191406-1.2304687l-3.2089844-2.0722657h2.8242188 1.6445312l-.265625-.2285156a1.5331622 1.5331622 0 0 1 -.2382812-.2578125h-1.140625-3.28125z"/><path d="m-37.966101-8.6779655-16.560366-7.0384215-.214649 17.1640067-6.733032-16.6868627-12.288564 11.9850062 7.038421-16.5603662-17.164006-.214648 16.686862-6.733032-11.985006-12.288565 16.560366 7.038421.214649-17.164006 6.733032 16.686863 12.288564-11.985006-7.038421 16.560366 17.164006.214648-16.686862 6.733032z" transform="matrix(.16285207 -.01451735 .01451735 .16285207 20.49599 7.804651)"/></g></svg>

<?xml version="1.0" encoding="UTF-8" standalone="no"?>
<!-- Created with Inkscape (http://www.inkscape.org/) -->

<svg
   xmlns:dc="http://purl.org/dc/elements/1.1/"
   xmlns:cc="http://creativecommons.org/ns#"
   xmlns:rdf="http://www.w3.org/1999/02/22-rdf-syntax-ns#"
   xmlns:svg="http://www.w3.org/2000/svg"
   xmlns="http://www.w3.org/2000/svg"
   xmlns:xlink="http://www.w3.org/1999/xlink"
   xmlns:sodipodi="http://sodipodi.sourceforge.net/DTD/sodipodi-0.dtd"
   xmlns:inkscape="http://www.inkscape.org/namespaces/inkscape"
   width="16px"
   height="16px"
   id="svg17273"
   version="1.1"
   inkscape:version="0.92.2 (unknown)"
   sodipodi:docname="mail-unread-new-symbolic.svg">
  <defs
     id="defs17275">
    <linearGradient
       gradientTransform="translate(0,-1036.3622)"
       y2="1052.3365"
       x2="6.2342343"
       y1="1036.4342"
       x1="6.2342343"
       gradientUnits="userSpaceOnUse"
       id="linearGradient3804"
       xlink:href="#linearGradient3779"
       inkscape:collect="always" />
    <linearGradient
       gradientUnits="userSpaceOnUse"
       y2="1052.3365"
       x2="6.2342343"
       y1="1036.4342"
       x1="6.2342343"
       id="linearGradient3812"
       xlink:href="#linearGradient3779"
       inkscape:collect="always" />
    <radialGradient
       gradientTransform="matrix(1.3020488e-5,1.7443014,-1.3603604,1.0154528e-5,1426.7246,1025.7323)"
       gradientUnits="userSpaceOnUse"
       r="5"
       fy="1045.0559"
       fx="11.072059"
       cy="1045.0559"
       cx="11.072059"
       id="radialGradient3796"
       xlink:href="#linearGradient3790"
       inkscape:collect="always" />
    <linearGradient
       gradientUnits="userSpaceOnUse"
       y2="7.984375"
       x2="14.8125"
       y1="7.984375"
       x1="1.1875"
       id="linearGradient3806"
       xlink:href="#linearGradient3800"
       inkscape:collect="always" />
    <linearGradient
       gradientUnits="userSpaceOnUse"
       y2="1052.2942"
       x2="3.4594595"
       y1="1036.4342"
       x1="3.4594595"
       id="linearGradient3785"
       xlink:href="#linearGradient3779"
       inkscape:collect="always" />
    <radialGradient
       gradientTransform="matrix(1.4806489e-6,1.9101011,-1.3873874,1.0754581e-6,1450.2076,1024.0417)"
       gradientUnits="userSpaceOnUse"
       r="8"
       fy="1039.4613"
       fx="8.0720873"
       cy="1039.4613"
       cx="8.0720873"
       id="radialGradient3777"
       xlink:href="#linearGradient3771"
       inkscape:collect="always" />
    <linearGradient
       gradientTransform="translate(-4,27.000017)"
       gradientUnits="userSpaceOnUse"
       y2="1024.1722"
       x2="14.801802"
       y1="1010.4072"
       x1="14.801802"
       id="linearGradient4542"
       xlink:href="#linearGradient4536"
       inkscape:collect="always" />
    <linearGradient
       id="linearGradient3702-501-757">
      <stop
         offset="0"
         style="stop-color:#181818;stop-opacity:0"
         id="stop2895" />
      <stop
         offset="0.5"
         style="stop-color:#181818;stop-opacity:1"
         id="stop2897" />
      <stop
         offset="1"
         style="stop-color:#181818;stop-opacity:0"
         id="stop2899" />
    </linearGradient>
    <linearGradient
       y2="39.999443"
       x2="25.058096"
       y1="47.027729"
       x1="25.058096"
       gradientUnits="userSpaceOnUse"
       id="linearGradient3136"
       xlink:href="#linearGradient3702-501-757"
       inkscape:collect="always" />
    <linearGradient
       id="linearGradient3688-464-309">
      <stop
         offset="0"
         style="stop-color:#181818;stop-opacity:1"
         id="stop2889" />
      <stop
         offset="1"
         style="stop-color:#181818;stop-opacity:0"
         id="stop2891" />
    </linearGradient>
    <radialGradient
       r="2.5"
       fy="43.5"
       fx="4.9929786"
       cy="43.5"
       cx="4.9929786"
       gradientTransform="matrix(2.003784,0,0,1.4,-20.01187,-104.4)"
       gradientUnits="userSpaceOnUse"
       id="radialGradient3134"
       xlink:href="#linearGradient3688-464-309"
       inkscape:collect="always" />
    <linearGradient
       id="linearGradient3688-166-749">
      <stop
         offset="0"
         style="stop-color:#181818;stop-opacity:1"
         id="stop2883" />
      <stop
         offset="1"
         style="stop-color:#181818;stop-opacity:0"
         id="stop2885" />
    </linearGradient>
    <radialGradient
       r="2.5"
       fy="43.5"
       fx="4.9929786"
       cy="43.5"
       cx="4.9929786"
       gradientTransform="matrix(2.003784,0,0,1.4,27.98813,-17.4)"
       gradientUnits="userSpaceOnUse"
       id="radialGradient3132"
       xlink:href="#linearGradient3688-166-749"
       inkscape:collect="always" />
    <linearGradient
       id="linearGradient4536">
      <stop
         id="stop4538"
         offset="0"
         style="stop-color:#ffffff;stop-opacity:1;" />
      <stop
         style="stop-color:#ffffff;stop-opacity:0.15686275;"
         offset="0.08246523"
         id="stop4546" />
      <stop
         style="stop-color:#ffffff;stop-opacity:0.23529412;"
         offset="0.936414"
         id="stop4544" />
      <stop
         id="stop4540"
         offset="1"
         style="stop-color:#ffffff;stop-opacity:0.39215687;" />
    </linearGradient>
    <linearGradient
       id="linearGradient3771">
      <stop
         id="stop3773"
         offset="0"
         style="stop-color:#ffffff;stop-opacity:1;" />
      <stop
         id="stop3775"
         offset="1"
         style="stop-color:#e6e6e6;stop-opacity:1;" />
    </linearGradient>
    <linearGradient
       id="linearGradient3779">
      <stop
         id="stop3781"
         offset="0"
         style="stop-color:#828282;stop-opacity:1;" />
      <stop
         id="stop3783"
         offset="1"
         style="stop-color:#505050;stop-opacity:1;" />
    </linearGradient>
    <linearGradient
       id="linearGradient3800"
       inkscape:collect="always">
      <stop
         id="stop3802"
         offset="0"
         style="stop-color:#000000;stop-opacity:0;" />
      <stop
         style="stop-color:#000000;stop-opacity:1;"
         offset="0.5"
         id="stop3808" />
      <stop
         id="stop3804"
         offset="1"
         style="stop-color:#000000;stop-opacity:0;" />
    </linearGradient>
    <linearGradient
       id="linearGradient3790">
      <stop
         id="stop3792"
         offset="0"
         style="stop-color:#93d0e9;stop-opacity:1;" />
      <stop
         id="stop3794"
         offset="1"
         style="stop-color:#3372b1;stop-opacity:1;" />
    </linearGradient>
  </defs>
  <sodipodi:namedview
     id="base"
     pagecolor="#ffffff"
     bordercolor="#666666"
     borderopacity="1.0"
     inkscape:pageopacity="0.0"
     inkscape:pageshadow="2"
     inkscape:zoom="29.75"
     inkscape:cx="8.134838"
     inkscape:cy="7.9115464"
     inkscape:current-layer="layer1"
     showgrid="true"
     inkscape:grid-bbox="true"
     inkscape:document-units="px"
     inkscape:window-width="1366"
     inkscape:window-height="706"
     inkscape:window-x="0"
     inkscape:window-y="0"
     inkscape:window-maximized="1"
     showguides="true"
     inkscape:guide-bbox="true" />
  <metadata
     id="metadata17278">
    <rdf:RDF>
      <cc:Work
         rdf:about="">
        <dc:format>image/svg+xml</dc:format>
        <dc:type
           rdf:resource="http://purl.org/dc/dcmitype/StillImage" />
        <dc:title />
      </cc:Work>
    </rdf:RDF>
  </metadata>
  <g
     id="layer1"
     inkscape:label="Layer 1"
     inkscape:groupmode="layer">
    <g
       id="g1491">
      <path
         style="fill:#bebebe;fill-opacity:1;stroke:none"
         d="M 15.09375 5.2851562 L 14.791016 5.4394531 L 15.09375 5.7011719 L 15.09375 5.5625 L 15.09375 5.2851562 z M 15.09375 8.1757812 A 1.5331622 1.5331622 0 0 1 14.607422 8.4160156 L 14.607422 10.671875 L 12.984375 9.4960938 A 1.5331622 1.5331622 0 0 1 12.708984 9.8964844 L 15.09375 11.625 L 15.09375 8.1757812 z "
         id="rect2987-2" />
      <path
         style="fill:#bebebe;fill-opacity:1;stroke:none"
         d="M 6.65625 8.3125 L 6.5 8.40625 L 6.375 8.5 L 4.90625 9.46875 L 0.90625 12.15625 L 0.90625 12.5 L 15.09375 12.5 L 15.09375 12.15625 L 12.228516 10.232422 A 1.5331622 1.5331622 0 0 1 11.580078 10.365234 L 14.054688 12.027344 L 1.9453125 12.027344 L 5.1679688 9.8632812 L 6.6347656 8.8945312 A 0.47347348 0.47347348 0 0 0 6.6582031 8.8789062 L 6.6621094 8.8769531 L 7.15625 9.1894531 A 1.5331622 1.5331622 0 0 1 6.9101562 8.4726562 L 6.65625 8.3125 z M 9.9394531 8.9492188 L 9.7617188 9.15625 L 10.189453 9.4394531 L 9.9394531 8.9492188 z "
         id="path814" />
      <path
         inkscape:connector-curvature="0"
         id="path816"
         d="m 0.90625,4.4375 v 1.125 6.0625 l 3.75,-2.71875 1.40625,-1 z M 1.3476562,5.2675781 5.2871094,7.9160156 4.4003906,8.546875 a 0.44198593,0.44198593 0 0 0 -0.00391,0.00195 L 1.3476562,10.759766 V 5.5625 Z"
         style="fill:#bebebe;fill-opacity:1;stroke:none" />
      <path
         style="fill:#bebebe;fill-opacity:1;stroke:none"
         d="M 0.90625 3.5 L 0.90625 3.90625 L 0.90625 3.96875 L 6.9746094 7.8867188 A 1.5331622 1.5331622 0 0 1 6.9785156 7.8730469 L 7.1289062 7.4082031 L 6.9160156 7.2695312 L 6.6601562 7.2890625 A 1.5331622 1.5331622 0 0 1 5.0410156 6.0585938 L 1.8320312 3.9863281 L 4.65625 3.9863281 L 6.3007812 3.9863281 L 6.0351562 3.7578125 A 1.5331622 1.5331622 0 0 1 5.796875 3.5 L 4.65625 3.5 L 1.375 3.5 L 0.90625 3.5 z "
         id="path818" />
    </g>
    <path
       sodipodi:type="star"
       style="fill:#bebebe;fill-opacity:1;stroke:none"
       id="path2998"
       sodipodi:sides="8"
       sodipodi:cx="-58.576271"
       sodipodi:cy="-23.864407"
       sodipodi:r1="25.60092"
       sodipodi:r2="9.0989635"
       sodipodi:arg1="0.63502674"
       sodipodi:arg2="1.1095282"
       inkscape:flatsided="false"
       inkscape:rounded="0"
       inkscape:randomized="0"
       d="m -37.966101,-8.6779655 -16.560366,-7.0384215 -0.214649,17.1640067 -6.733032,-16.6868627 -12.288564,11.9850062 7.038421,-16.5603662 -17.164006,-0.214648 16.686862,-6.733032 -11.985006,-12.288565 16.560366,7.038421 0.214649,-17.164006 6.733032,16.686863 12.288564,-11.985006 -7.038421,16.560366 17.164006,0.214648 -16.686862,6.733032 z"
       inkscape:transform-center-x="0.020091105"
       inkscape:transform-center-y="0.17492809"
       transform="matrix(0.16285207,-0.01451735,0.01451735,0.16285207,20.49599,7.8046506)" />
  </g>
</svg>
